X:14
T:Headlands March                                                                                   
M:C|                                                                                                
L:1/8
R:hornpipe                                                                                               
K:A                                                                                                 
e>c|:d>cB>A A<c E>A|F>A d<f e2 (3efg|a>e f<a f>e d<c|c>B A<c B2 e>c|                                     
d>cB>A A<c E>A|F>A d<f a2 g>f|e<a A>c B>fe>d|1 c2 A2 A2 e>c:|2 c2 A2 A2 (3efg||                        
|: a>e f<a c<e c>A|d>A d<f e2 (3efg|a>e f<a f>e d<c|                                                        
|c>B A<c B2 e>c|d>cB>A A<c E>A|F>c d<f a2 g>f|e<a A>c B>f e>d|c2 A2 A2 e>c :|

